src/Pure/16/symbolic/actions/builder-debugger-symbolic.svg

<?xml version="1.0" encoding="UTF-8" standalone="no"?>
<svg
   width="16px"
   height="16px"
   version="1.1"
   viewBox="0 0 16 16"
   id="svg1"
   sodipodi:docname="builder-debugger-symbolic.svg"
   inkscape:version="1.4.2 (ebf0e940d0, 2025-05-08)"
   xmlns:inkscape="http://www.inkscape.org/namespaces/inkscape"
   xmlns:sodipodi="http://sodipodi.sourceforge.net/DTD/sodipodi-0.dtd"
   xmlns="http://www.w3.org/2000/svg"
   xmlns:svg="http://www.w3.org/2000/svg">
  <defs
     id="defs1">
     <style id="current-color-scheme" type="text/css">
        .ColorScheme-Text { color:#363636; }
     </style>
  </defs>
  <sodipodi:namedview
     id="namedview1"
     pagecolor="#ffffff"
     bordercolor="#000000"
     borderopacity="0.25"
     inkscape:showpageshadow="2"
     inkscape:pageopacity="0.0"
     inkscape:pagecheckerboard="0"
     inkscape:deskcolor="#d1d1d1"
     inkscape:zoom="49.6875"
     inkscape:cx="8"
     inkscape:cy="8"
     inkscape:window-width="1920"
     inkscape:window-height="1010"
     inkscape:window-x="0"
     inkscape:window-y="0"
     inkscape:window-maximized="1"
     inkscape:current-layer="svg1" />
  <path
     id="path1"
     style="fill:currentColor"
     class="ColorScheme-Text"
     d="M 6 0 L 6 2.3339844 C 4.8157 2.8938344 4 4.0986 4 5.5 L 4 15 C 4 15.554 4.446 16 5 16 L 10 16 C 10.554 16 11 15.554 11 15 L 11 5.5 C 11 4.0985 10.18426 2.8937844 9 2.3339844 L 9 0 L 6 0 z M 7 1 L 8 1 L 8 2.0371094 C 7.83689 2.0139894 7.6697 2 7.5 2 C 7.3303 2 7.16311 2.0139904 7 2.0371094 L 7 1 z M 7.5 3 C 8.7139778 3.0000233 9.721075 3.8558056 9.9511719 5 L 5.0488281 5 C 5.278915 3.8558157 6.2860223 3.0000234 7.5 3 z M 5 6 L 10 6 L 10 15 L 5 15 L 5 14 L 9 14 L 9 7 L 5 7 L 5 6 z M 5 8 L 8 8 L 8 13 L 5 13 L 5 10 L 5 8 z " />
</svg>

<svg width="16px" height="16px" version="1.1" viewBox="0 0 16 16" xmlns="http://www.w3.org/2000/svg">
 <path d="m6 0v2.334c-1.1843 0.55985-2 1.7646-2 3.166v1.5 1 2 3 1 1c0 0.554 0.446 1 1 1h5c0.554 0 1-0.446 1-1v-5-4.5c0-1.4015-0.81574-2.6062-2-3.166v-2.334h-3zm1 1h1v1.0371c-0.16311-0.02312-0.3303-0.037109-0.5-0.037109s-0.33689 0.01399-0.5 0.037109v-1.0371zm0.5 2c1.214 0 2.2211 0.85579 2.4512 2h-4.9023c0.23009-1.1442 1.2372-2 2.4512-2zm-2.5 3h5v4 5h-5v-1h4v-1-6h-4v-1zm0 2h3v5h-3v-3-2z" fill="#363636"/>
</svg>
